svg/fluentui-system-icons/ic_fluent_building_people_24_regular.svg

<svg width="24" height="24" viewBox="0 0 24 24" fill="none" xmlns="http://www.w3.org/2000/svg">
<path d="M7.5 6.5C7.5 5.94772 7.94772 5.5 8.5 5.5C9.05229 5.5 9.5 5.94772 9.5 6.5C9.5 7.05228 9.05229 7.5 8.5 7.5C7.94772 7.5 7.5 7.05228 7.5 6.5ZM8.5 12.5C7.94772 12.5 7.5 12.9477 7.5 13.5C7.5 14.0523 7.94772 14.5 8.5 14.5C9.05229 14.5 9.5 14.0523 9.5 13.5C9.5 12.9477 9.05229 12.5 8.5 12.5ZM7.5 10C7.5 9.44771 7.94772 9 8.5 9C9.05229 9 9.5 9.44771 9.5 10C9.5 10.5523 9.05229 11 8.5 11C7.94772 11 7.5 10.5523 7.5 10ZM12 5.5C11.4477 5.5 11 5.94772 11 6.5C11 7.05228 11.4477 7.5 12 7.5C12.5523 7.5 13 7.05228 13 6.5C13 5.94772 12.5523 5.5 12 5.5ZM11 10C11 9.44771 11.4477 9 12 9C12.5523 9 13 9.44771 13 10C13 10.5523 12.5523 11 12 11C11.4477 11 11 10.5523 11 10ZM4 4.25C4 3.00736 5.00736 2 6.25 2H14.25C15.4926 2 16.5 3.00736 16.5 4.25V9.4993H17.7528C18.9954 9.4993 20.0028 10.5067 20.0028 11.7493V13.1027C19.5633 13.2265 19.1684 13.4568 18.8478 13.7641C18.7639 13.5004 18.6473 13.2513 18.5028 13.0216V11.7493C18.5028 11.3351 18.167 10.9993 17.7528 10.9993H15.75C15.3358 10.9993 15 10.6635 15 10.2493V4.25C15 3.83579 14.6642 3.5 14.25 3.5H6.25C5.83579 3.5 5.5 3.83579 5.5 4.25V20H11.0018C11.0162 20.5037 11.1183 21.016 11.3241 21.5H4.75C4.33579 21.5 4 21.1642 4 20.75V4.25ZM18 14.75C18 15.9926 16.9926 17 15.75 17C14.5074 17 13.5 15.9926 13.5 14.75C13.5 13.5074 14.5074 12.5 15.75 12.5C16.9926 12.5 18 13.5074 18 14.75ZM19.5 19.875C19.5 21.4315 18.4286 23 15.75 23C13.0714 23 12 21.4374 12 19.875C12 18.8395 12.7195 18 13.6071 18H17.8929C18.7805 18 19.5 18.8395 19.5 19.875ZM20.75 17.5C21.7165 17.5 22.5 16.7165 22.5 15.75C22.5 14.7835 21.7165 14 20.75 14C19.7835 14 19 14.7835 19 15.75C19 16.7165 19.7835 17.5 20.75 17.5ZM20.4984 19.875C20.4984 20.5948 20.3199 21.3397 19.9159 21.9994C19.9451 21.9998 19.9745 22 20.0042 22C22.1471 22 23.0042 20.9021 23.0042 19.8125C23.0042 19.0876 22.4286 18.5 21.7185 18.5H20.1779C20.3858 18.9236 20.4984 19.3993 20.4984 19.875Z" fill="#212121"/>
</svg>

<svg xmlns="http://www.w3.org/2000/svg" width="24" height="24"><path d="M7.5 6.5a1 1 0 1 1 2 0 1 1 0 0 1-2 0Zm1 6a1 1 0 1 0 0 2 1 1 0 0 0 0-2Zm-1-2.5a1 1 0 1 1 2 0 1 1 0 0 1-2 0ZM12 5.5a1 1 0 1 0 0 2 1 1 0 0 0 0-2ZM11 10a1 1 0 1 1 2 0 1 1 0 0 1-2 0ZM4 4.25A2.25 2.25 0 0 1 6.25 2h8a2.25 2.25 0 0 1 2.25 2.25V9.5h1.253a2.25 2.25 0 0 1 2.25 2.25v1.353c-.44.123-.835.354-1.155.661a3.238 3.238 0 0 0-.345-.742v-1.273a.75.75 0 0 0-.75-.75H15.75a.75.75 0 0 1-.75-.75V4.25a.75.75 0 0 0-.75-.75h-8a.75.75 0 0 0-.75.75V20h5.502c.014.504.116 1.016.322 1.5H4.75a.75.75 0 0 1-.75-.75V4.25Zm14 10.5a2.25 2.25 0 1 1-4.5 0 2.25 2.25 0 0 1 4.5 0Zm1.5 5.125c0 1.556-1.071 3.125-3.75 3.125-2.679 0-3.75-1.563-3.75-3.125C12 18.84 12.72 18 13.607 18h4.286c.887 0 1.607.84 1.607 1.875Zm1.25-2.375a1.75 1.75 0 1 0 0-3.5 1.75 1.75 0 0 0 0 3.5Zm-.252 2.375a4.06 4.06 0 0 1-.582 2.124l.088.001c2.143 0 3-1.098 3-2.188a1.3 1.3 0 0 0-1.286-1.312h-1.54c.208.424.32.9.32 1.375Z"/></svg>
